X:33
T:Humors of Swanlinbar
Z:robin.beech@mcgill.ca
S:Christina Smith, Victoria Bar, Glasgow
R:reel
M:4/4
L:1/8
K:Am
GFDF GFDF | GFDF AFDF | GFDF GFDF | DECE GFDF |
GFDF GFDC | A,_B,_B,C DFG/F/F | GFDF GFDF | DECE GFDF |:
BdAd BdAG | FDGG AFGD | B2AcB3 G | GECE GECE ::
f3f- fede | fedf afde | f3f- fedf | eccd efge ::
fdec dcAG | FDEG AFDA | B2Ac B3G | GECE GECE :|
